X:546
T:Vallåtspolska
Z:[[http://www.bluerose.karenlmyers.org/IncipitsPolskaOrsa2.html|Karen Myers (#2148)]]
M:3/4
L:1/8
R:Polska
O:Orsa, Dalarna
K:Dm
((A |: A>))(^c d>)(e f>)a | (ag) (ga) (f/g/)f/e/ | ^c2 de f>e | (gf) (d^c) A2- |
A>(^c d>)(e f>)a | (ag) (ga) (f/g/)f/e/ | ^c2 de f>e | (gf) d2- dA- :|
|: A2 (B/A/)B/c/ d2- | d>(^F G)(A B>)c | d2 (dc) B>A | (cB) (G^F) D2- | D2 (B/A/)B/c/ d>c |
B(A G/^F/)G/A/ B>c | d2 (dc) B>A |1 (cB) G2- GA :|2 (cB) G2- G z |]
(:musicend:)

(:music:)
